lib/functional/office&editing/file-video.svg

<svg xmlns="http://www.w3.org/2000/svg" fill="none" stroke="currentColor" aria-hidden="true" viewBox="0 0 32 32"><g id="Icon-FileVideo"><g clip-path="url(#clip0_12_1246)"><g id="size=md (32px)"><g id="FileVideo"><path id="Vector" stroke-linecap="round" stroke-linejoin="round" stroke-width="2" d="M19 4V11H26"/><path id="Vector_2" stroke-linecap="round" stroke-linejoin="round" stroke-width="2" d="M22 28H25C25.2652 28 25.5196 27.8946 25.7071 27.7071C25.8946 27.5196 26 27.2652 26 27V11L19 4H7C6.73478 4 6.48043 4.10536 6.29289 4.29289C6.10536 4.48043 6 4.73478 6 5V16"/><path id="Vector_3" stroke-linecap="round" stroke-linejoin="round" stroke-width="2" d="M13 20H6C5.44772 20 5 20.4477 5 21V26C5 26.5523 5.44772 27 6 27H13C13.5523 27 14 26.5523 14 26V21C14 20.4477 13.5523 20 13 20Z"/><path id="Vector_4" stroke-linecap="round" stroke-linejoin="round" stroke-width="2" d="M14 22.5L18 20.5V26.65L14 24.5"/></g></g></g></g><defs><clipPath id="clip0_12_1246"><rect width="32" height="32" fill="white" rx="5"/></clipPath></defs></svg>

<svg xmlns="http://www.w3.org/2000/svg" fill="none" stroke="currentColor" aria-hidden="true" viewBox="0 0 32 32"><g stroke="#101828" stroke-linecap="round" stroke-linejoin="round" stroke-width="2" clip-path="url(#a)"><path d="M19 4v7h7"/><path d="M22 28h3a1 1 0 0 0 1-1V11l-7-7H7a1 1 0 0 0-1 1v11"/><path d="M13 20H6a1 1 0 0 0-1 1v5a1 1 0 0 0 1 1h7a1 1 0 0 0 1-1v-5a1 1 0 0 0-1-1Zm1 2.5 4-2v6.15l-4-2.15"/></g><defs><clipPath id="a"><rect width="32" height="32" fill="#fff" rx="5"/></clipPath></defs></svg>
